X: 5630
T: Butterfly
R: reel
M: 4/4
K: Eminor
AB/B/ BA GE (3EEE & x2 D6|EBEB dBAd|AB/B/ BA GABe|dBAd BE (3EEE|
AB BA GE (3EEE & x2 F3 x3|EBEB dBAd|AB/B/ BA GABe|dBAd BE E2|
(3Bcd ef gg/g/ ge|(3BBB ge dBAd|Bdef gg/g/ ga|bage dBAd|
Bdef gfed|(3BBB ge dBAd|(3Bcd ef g2 ga|bage dBAd|

